X:1
T: Lord Chief Baron's Favourite
C:
R:Reel
Q: 232
K:Am
M:4/4
L:1/8
|:c|A1/2A1/2A a2 ge de|cG GE GA BG|A1/2A1/2A a2 ge de|cA B^G A1/2A1/2A Ac|
A1/2A1/2A a2 ge de|cG GE GA BG|A1/2A1/2A a2 ge de|cA B^G A1/2A1/2A Ac|
GA cd ec de|cG GE cG Gc|GA cd ec de|cA B^G A1/2A1/2A Ac|
GA cd ec de|cG GE GA cg|ae gd ed ca|ge dc A1/2A1/2A A:|

